X: 151108
M: 3/4
L: 1/8
K: G
uDGA |\
g4fe | (ed)d2e2 | (dc)c2d2 | (cB)B2G2 |
g4(fe) | (ed)d2e2 | (e^c)c2BA | d2z AfA |\
e2z A^cA | d3 AfA |\
e3 A^cA | de^cede | =cdBdA"^D.C. to"d | G2z !segno!||\
uFGA |\
g4(fe) | (ed)d2e2 | (dc)c2d2 | (cB)B2G2 |\
g4(fe) | (ed)d2e2 | (dc)c2f2 | g2z2 |]


